X: 599
T: Dök Zülfünü Meydana Gel
C: Tanburî Mustafa Çavuş
O: Turkey
F: http://compmusic.upf.edu/node/140
N: hisarbuselik--sarki--raksaksagi--dok_zulfunu--tanburi_mustafa_cavus
N: makam= hisarbuselik
N: form= sarki
N: usul= raksaksagi = 9/8
M: 9/8
L: 1/16
K: C _1/4B   
Q: 1/4=240
%%MIDI tuningsystem comma53
e2^3/4f2 g2f2 a2g4z4 | ^3/4f2 g2_b2 a2g2 =f4 z4  | \
w:  ARANAĞME  |   | 
e2f2 a2g2 a2g2 f2e2 d2 | 
w:   | 
d2 e2d2 c2=B2 c4 z4  | e2d2 c2=B2 c2d4z4 | \
w:   |   | 
e2 d2c2 =B2A2 G4 z4  | 
w:   | 
=B2c2 e2d2 e2c2 B2A2 B2 | c2 =B2A4^G2 A6z2  | \
w:   |   | 
e2^3/4f2 g2f2 a2g4z4 | 
w:  ARANAĞME  | 
^3/4f2 g2_b2 a2g2 =f4 z4  | e2f2 a2g2 a2g2 f2e2 d2 | \
w:   |   | 
d2 e2d2 c2=B2 c4 z4  | 
w:   | 
e2d2 c2=B2 c2d4z4 | e2 d2c2 =B2A2 G4 z4  | \
w:   |   | 
=B2c2 e2d2 e2c2 B2A2 B2 | 
w:   | 
c2 =B2A4^G2 A6z2  | e4 {^g}f2e2 ^d2{e}c2 =B2A4 | \
w:   |  Dök  *  zül *  *  *  fü *  nü   | 
e4^d4e2 f4 z4  | e4 ^d6c4=B4 | 
w:  mey da na  gel    |  Sür  a tı nı   | 
A4^G4A2 =B4 z4  | e4 {^g}f2e2 ^d2{e}c4=g4 | \
w:  fer zâ na  gel    |  Al  *  day *  *  *  re ni   | 
g4^3/4f2 g2a2 e6z2  | e4 a6^g2 f2e4 | 
w:  hen gâ *  ma  gel    |  Bül bül  se *  nin   | 
^d2 e2f4e2 e2d2 c4  | ^d2e2 f2e2 ^g2f4z4 | \
w:  gül *  şen  *  se *  nin    |  Yâr   | 
f2 e2e4^d2 .e4 .c4  | ^d2e2 f2e2 d2c2 d2e4 | 
w:  yâr  *  am man  am man    |  Â *  şı *  *  kı *  nım   | 
^d2 e2f2 e2d2 c2=B2 A4  | d4 f2e2 d2c2 {d}=B2c4 | \
w:  hay *  li  *  *  za *  man    |  Dil  mun *  *  ta *  *  zır   | 
=B2 c2e2 d2e2 c2B2 A4  | 
w:  teş *  rî *  *  fi *  ne    | 
=B4 c4 B2A2 ^G2A4 | e2 ^3/4f2g2 f2a2 g4 z4  | \
w:  Gel  am man  am *  man    |  ARANAĞME  | 
^3/4f2g2 _b2a2 g2=f4z4 | e2 f2a2 g2a2 g2f2 e2d2  | 
w:   |   | 
d2e2 d2c2 =B2c4z4 | e2 d2c2 =B2c2 d4 z4  | \
w:   |   | 
e2d2 c2=B2 A2G4z4 | 
w:   | 
=B2 c2e2 d2e2 c2B2 A2B2  | c2=B2 A4 ^G2A6 z2 | \
w:   |   | 
e2 ^3/4f2g2 f2a2 g4 z4  | 
w:  ARANAĞME  | 
^3/4f2g2 _b2a2 g2=f4z4 | e2 f2a2 g2a2 g2f2 e2d2  | \
w:   |   | 
d2e2 d2c2 =B2c4z4 | 
w:   | 
e2 d2c2 =B2c2 d4 z4  | e2d2 c2=B2 A2G4z4 | \
w:   |   | 
=B2 c2e2 d2e2 c2B2 A2B2  | 
w:   | 
c2=B2 A4 ^G2A6 z2 | e4{^g}f2 e2^d2 {e}c2=B2 A4  | \
w:   |  Dök  *  zül *  *  *  fü *  nü   | 
e4 ^d4 e2f4z4 | e4^d6 c4 =B4  | 
w:  mey da na  gel    |  Sür  a tı nı   | 
A4 ^G4 A2=B4z4 | e4{^g}f2 e2^d2 {e}c4 =g4  | \
w:  fer zâ na  gel    |  Al  *  day *  *  *  re ni   | 
g4 ^3/4f2g2 a2e6 z2 | e4a6 ^g2f2 e4  | 
w:  hen gâ *  ma  gel    |  Bül bül  se *  nin   | 
^d2e2 f4 e2e2 d2c4 | ^d2 e2f2 e2^g2 f4 z4  | \
w:  gül *  şen  *  se *  nin    |  Yâr   | 
f2e2 e4 ^d2.e4.c4 | ^d2 e2f2 e2d2 c2d2 e4  | 
w:  yâr  *  am man  am man    |  Â *  şı *  *  kı *  nım   | 
^d2e2 f2e2 d2c2 =B2A4 | d4f2 e2d2 c2{d}=B2 c4  | \
w:  hay *  li  *  *  za *  man    |  Dil  mun *  *  ta *  *  zır   | 
=B2c2 e2d2 e2c2 B2A4 | 
w:  teş *  rî *  *  fi *  ne    | 
=B4c4B2 A2^G2 A4  | |


